lib/brands/icons/blogger.svg

<svg xmlns="http://www.w3.org/2000/svg" fill="none" aria-hidden="true" viewBox="0 0 48 48"><g id="blogger-Icon"><g id="Group"><path id="Vector" fill="#F06A35" d="M10.1135 41.8583C9.43977 41.6808 8.85845 41.4196 8.3223 41.0536C7.86971 40.7447 7.20821 40.1059 6.95665 39.735C6.6494 39.282 6.29623 38.5063 6.1523 37.9682C6.0055 37.4194 6.00312 37.2009 6.00048 24.0276C5.99786 10.9208 6.00084 10.6326 6.14474 10.0694C6.6536 8.07745 8.22935 6.5619 10.2616 6.10978C10.846 5.97978 36.9488 5.95704 37.5791 6.08599C39.2855 6.43505 40.6268 7.4613 41.403 9.01164C42.02 10.2442 41.9649 8.88785 41.9931 23.522C42.0111 32.8331 41.9945 36.7421 41.9352 37.2291C41.6573 39.508 40.0881 41.2756 37.8302 41.8532C37.2526 42.001 37.0517 42.0031 23.9381 41.999C11.2589 41.9952 10.6077 41.9886 10.1135 41.8583Z"/><path id="Vector_2" fill="white" d="M29.1099 35.0354C30.7228 34.8154 31.9868 34.1689 33.1725 32.9575C34.0303 32.0812 34.5673 31.1326 34.9182 29.8737C35.064 29.3507 35.0762 29.0961 35.1029 26.0254C35.1231 23.7078 35.1063 22.6223 35.0459 22.3483C34.9584 21.9511 34.7105 21.5823 34.4276 21.4285C34.3405 21.3812 33.7827 21.3209 33.188 21.2945C32.1915 21.2502 32.08 21.2308 31.7654 21.0465C31.2665 20.7541 31.1291 20.4383 31.1277 19.5811C31.1251 17.9432 30.4435 16.4226 29.0967 15.0502C28.1373 14.0725 27.067 13.4107 25.8454 13.0399C25.553 12.9511 24.8982 12.9209 22.705 12.895C19.2636 12.8543 18.4997 12.9249 17.3281 13.3915C15.1682 14.2519 13.6162 16.065 13.0501 18.3895C12.9437 18.8261 12.9231 19.5258 12.898 23.5452C12.8665 28.5807 12.9012 29.3202 13.2159 30.3181C13.4758 31.1425 13.7381 31.6478 14.2785 32.3648C15.3078 33.7309 16.8505 34.7175 18.3929 34.9961C19.1268 35.1288 28.1824 35.1619 29.1099 35.0354Z"/><path id="Vector_3" fill="#F06A35" d="M28.8258 27.1558C29.4212 27.7117 29.2956 28.7014 28.5781 29.1077L27.8409 29.2276L23.4901 29.2779C20.5567 29.3053 19.6753 29.2476 19.4951 29.1761L19.4894 29.1737C19.1354 29.0195 18.8058 28.5911 18.7488 28.2112C18.6946 27.8493 18.8764 27.3519 19.1552 27.0996L19.2173 27.0456C19.492 26.8198 19.8082 26.7793 22.4002 26.7702L25.3979 26.7671C28.4283 26.7693 28.4549 26.8094 28.8258 27.1558ZM24.5547 18.9501C25.0167 19.1835 25.2175 19.5126 25.2175 20.0366C25.2175 20.4916 25.0432 20.8157 24.6559 21.0769L24.5808 21.1249C24.3924 21.2373 24.2076 21.257 22.7468 21.2683L21.8043 21.2737C20.6359 21.2761 19.7364 21.2516 19.5927 21.212C18.7681 20.9847 18.46 19.8016 19.066 19.1898L19.1225 19.1338C19.4469 18.8196 19.6532 18.787 21.5541 18.7841L22.9865 18.7852C24.197 18.7909 24.2937 18.8183 24.5547 18.9501Z"/></g></g></svg>

<svg xmlns="http://www.w3.org/2000/svg" fill="none" aria-hidden="true" viewBox="0 0 48 48"><path fill="#F06A35" d="M10.114 41.858a5.67 5.67 0 0 1-1.792-.804c-.452-.31-1.114-.948-1.365-1.319a6.865 6.865 0 0 1-.805-1.767c-.147-.549-.149-.767-.152-13.94-.002-13.107 0-13.395.145-13.959.509-1.992 2.084-3.507 4.117-3.96.584-.13 26.687-.152 27.317-.023 1.706.35 3.048 1.375 3.824 2.926.617 1.232.562-.124.59 14.51.018 9.311.002 13.22-.058 13.707-.278 2.279-1.847 4.047-4.105 4.624-.577.148-.778.15-13.892.146-12.68-.004-13.33-.01-13.824-.14Z"/><path fill="#fff" d="M29.11 35.035c1.613-.22 2.877-.866 4.063-2.077.858-.877 1.394-1.825 1.745-3.084.146-.523.158-.778.185-3.849.02-2.317.003-3.403-.057-3.677-.087-.397-.335-.766-.618-.92-.087-.047-.645-.107-1.24-.134-.996-.044-1.108-.063-1.422-.247-.5-.293-.637-.609-.638-1.466-.003-1.638-.684-3.158-2.031-4.53-.96-.979-2.03-1.64-3.251-2.011-.293-.089-.948-.12-3.14-.145-3.442-.04-4.206.03-5.378.497-2.16.86-3.712 2.673-4.278 4.998-.106.436-.127 1.136-.152 5.155-.031 5.036.003 5.775.318 6.773.26.824.522 1.33 1.063 2.047 1.029 1.366 2.572 2.352 4.114 2.631.734.133 9.79.166 10.717.04Z"/><path fill="#F06A35" d="M28.826 27.156c.595.556.47 1.545-.248 1.952l-.737.12-4.35.05c-2.934.027-3.816-.03-3.996-.102l-.006-.002c-.354-.154-.683-.583-.74-.963-.054-.362.127-.86.406-1.111l.062-.054c.275-.226.591-.267 3.183-.276l2.998-.003c3.03.002 3.057.042 3.428.389Zm-4.271-8.206c.462.233.663.563.663 1.087 0 .455-.175.779-.562 1.04l-.075.048c-.189.112-.373.132-1.834.143l-.943.006c-1.168.002-2.068-.022-2.211-.062-.825-.227-1.133-1.41-.527-2.022l.056-.056c.325-.314.531-.347 2.432-.35l1.433.001c1.21.006 1.307.033 1.568.165Z"/></svg>
